X:58
T:Country Dance. JJo.058
T:Ball,The,aka. JJo.058
S:J.Jones MS,1801,N.Shrops.
N:Well known in varoius MSs as The Ball, or The Bell.
A:N Shropshire
Z:Neil Brookes 2006
M:6/8
L:1/8
Q:3/8=120
K:C
g|e2cd2B|cec G2G|A2A f2d|c3B2g|!
e2cd2B|cec G2G|A2fd2B|c3c2::!
e|d2Gf2d|egec2e|d2Gf2d|f3e2g|!
a2fd2b|c’2ge2c|A2fd2B|c3[c2G2C2]:|

